!!!OTL: Chanty Song (a)
!!!ONM: 56.
**kern
*clefG2
*k[f#]
*G:
*M4/4
*>[A,A]
*>norep[A]
*>A
=!|:
*MM80
{4.d
8d
=1
4.g
8g
4.g
8g
=2
4g
4d
4B}
{4d
=3
8d
4.b
4.b
8a
=4
4.b
8r
4r}
{4g
=5
4dd
4dd
4dd
4dd
=6
4ee
4dd
4cc}
{4b
=7
4.a
8a
4a
4b
=8
4.a
8r
4r}
{4d
=9
4g
4b
4g
4d
=10
4b
4b
4g}
{4b
=11
4dd
4dd
4b
4g
=12
(4b
4a)
2r}
=13
{2g
4.g
8g
=14
8g
8a
8b
8cc
4dd}
{4ee
=15
4dd
4g
4a
4a
=16
2g}
==:|!
*-
!!!CNT: Folksongs of Maritime Canada
!!!MRD: 1928///-1932///
!!!OCL: Helen Creighton
!!!YOR: Songs and Ballads from Nova Scotia
!!!PPR: J.M. Dent & Sons, Limited
!!!PPP: Toronto, Canada
!!!PDT: 1932///
!!!reprint: Dover Publications, 1992: ISBN 0-486-21703-5
!!!ENC1: Craig Stuart Sapp (music and bibliographic data)                       
!!!ENC2: Marcus Pearce (phrase markings and key designations)                   
!!!ENC3: Darrell Conklin (phrase markings and key designations)   
!!!END: 2002/04/10/
!!!EEV: 2004/06/05
!!!MPN: Mr. Richard Hartlan
!!!PPG: 113
!!!EFL: 57/152
!!!ARE: Canada; Nova Scotia
!!!verses: 3
!!!VTS: 2984759425
